dist/img/profile768.svg

<svg width="52" height="44" viewBox="0 0 52 44" fill="none" xmlns="http://www.w3.org/2000/svg">
<path d="M26 15C28.7625 15 31 12.7625 31 10C31 7.2375 28.7625 5 26 5C23.2375 5 21 7.2375 21 10C21 12.7625 23.2375 15 26 15ZM26 17.5C22.6625 17.5 16 19.175 16 22.5V25H36V22.5C36 19.175 29.3375 17.5 26 17.5Z" fill="#2D2D2D"/>
<path d="M7.98 41H6.354V33.566H2.586V41H0.966V32.324H7.98V41ZM11.0617 39.404C11.2297 39.608 11.4117 39.752 11.6077 39.836C11.8077 39.92 12.0237 39.962 12.2557 39.962C12.4797 39.962 12.6817 39.92 12.8617 39.836C13.0417 39.752 13.1937 39.624 13.3177 39.452C13.4457 39.28 13.5437 39.064 13.6117 38.804C13.6797 38.54 13.7137 38.23 13.7137 37.874C13.7137 37.514 13.6837 37.21 13.6237 36.962C13.5677 36.71 13.4857 36.506 13.3777 36.35C13.2697 36.194 13.1377 36.08 12.9817 36.008C12.8297 35.936 12.6557 35.9 12.4597 35.9C12.1517 35.9 11.8897 35.966 11.6737 36.098C11.4577 36.226 11.2537 36.408 11.0617 36.644V39.404ZM10.9837 35.684C11.2357 35.4 11.5217 35.17 11.8417 34.994C12.1617 34.818 12.5377 34.73 12.9697 34.73C13.3057 34.73 13.6117 34.8 13.8877 34.94C14.1677 35.08 14.4077 35.284 14.6077 35.552C14.8117 35.816 14.9677 36.144 15.0757 36.536C15.1877 36.924 15.2437 37.37 15.2437 37.874C15.2437 38.334 15.1817 38.76 15.0577 39.152C14.9337 39.544 14.7557 39.884 14.5237 40.172C14.2957 40.46 14.0177 40.686 13.6897 40.85C13.3657 41.01 13.0017 41.09 12.5977 41.09C12.2537 41.09 11.9597 41.038 11.7157 40.934C11.4717 40.826 11.2537 40.678 11.0617 40.49V43.01H9.57966V34.844H10.4857C10.6777 34.844 10.8037 34.934 10.8637 35.114L10.9837 35.684ZM19.1123 34.748C19.5683 34.748 19.9823 34.822 20.3543 34.97C20.7303 35.118 21.0503 35.328 21.3143 35.6C21.5822 35.872 21.7882 36.204 21.9323 36.596C22.0763 36.988 22.1483 37.426 22.1483 37.91C22.1483 38.398 22.0763 38.838 21.9323 39.23C21.7882 39.622 21.5822 39.956 21.3143 40.232C21.0503 40.508 20.7303 40.72 20.3543 40.868C19.9823 41.016 19.5683 41.09 19.1123 41.09C18.6523 41.09 18.2343 41.016 17.8583 40.868C17.4823 40.72 17.1603 40.508 16.8923 40.232C16.6283 39.956 16.4223 39.622 16.2743 39.23C16.1303 38.838 16.0583 38.398 16.0583 37.91C16.0583 37.426 16.1303 36.988 16.2743 36.596C16.4223 36.204 16.6283 35.872 16.8923 35.6C17.1603 35.328 17.4823 35.118 17.8583 34.97C18.2343 34.822 18.6523 34.748 19.1123 34.748ZM19.1123 39.95C19.6243 39.95 20.0023 39.778 20.2463 39.434C20.4943 39.09 20.6183 38.586 20.6183 37.922C20.6183 37.258 20.4943 36.752 20.2463 36.404C20.0023 36.056 19.6243 35.882 19.1123 35.882C18.5923 35.882 18.2063 36.058 17.9543 36.41C17.7063 36.758 17.5823 37.262 17.5823 37.922C17.5823 38.582 17.7063 39.086 17.9543 39.434C18.2063 39.778 18.5923 39.95 19.1123 39.95ZM27.5809 39.986C28.1769 39.942 28.6369 39.742 28.9609 39.386C29.2889 39.03 29.4529 38.542 29.4529 37.922C29.4529 37.302 29.2889 36.814 28.9609 36.458C28.6369 36.098 28.1769 35.896 27.5809 35.852V39.986ZM26.2849 35.852C25.9889 35.876 25.7249 35.94 25.4929 36.044C25.2649 36.144 25.0689 36.282 24.9049 36.458C24.7449 36.634 24.6229 36.846 24.5389 37.094C24.4549 37.338 24.4129 37.614 24.4129 37.922C24.4129 38.23 24.4549 38.508 24.5389 38.756C24.6229 39 24.7449 39.21 24.9049 39.386C25.0689 39.558 25.2649 39.696 25.4929 39.8C25.7249 39.9 25.9889 39.962 26.2849 39.986V35.852ZM27.6289 34.754C28.1209 34.782 28.5689 34.876 28.9729 35.036C29.3809 35.192 29.7289 35.406 30.0169 35.678C30.3089 35.95 30.5349 36.274 30.6949 36.65C30.8549 37.026 30.9349 37.446 30.9349 37.91C30.9349 38.378 30.8549 38.802 30.6949 39.182C30.5349 39.558 30.3089 39.882 30.0169 40.154C29.7289 40.426 29.3809 40.642 28.9729 40.802C28.5689 40.962 28.1209 41.056 27.6289 41.084V43.064H26.2369V41.084C25.7449 41.056 25.2949 40.962 24.8869 40.802C24.4829 40.642 24.1349 40.426 23.8429 40.154C23.5549 39.882 23.3309 39.558 23.1709 39.182C23.0109 38.802 22.9309 38.378 22.9309 37.91C22.9309 37.446 23.0109 37.026 23.1709 36.65C23.3309 36.274 23.5549 35.95 23.8429 35.678C24.1349 35.406 24.4829 35.192 24.8869 35.036C25.2949 34.876 25.7449 34.782 26.2369 34.754V32.324H27.6289V34.754ZM37.5882 34.844V41H36.1062V37.406C36.1062 37.314 36.1102 37.214 36.1182 37.106C36.1302 36.994 36.1442 36.882 36.1602 36.77C36.0802 36.954 35.9922 37.116 35.8962 37.256C35.8882 37.264 35.8482 37.32 35.7762 37.424C35.7042 37.524 35.6102 37.654 35.4942 37.814C35.3822 37.974 35.2542 38.156 35.1102 38.36C34.9662 38.56 34.8202 38.764 34.6722 38.972C34.3242 39.464 33.9302 40.02 33.4902 40.64C33.4342 40.724 33.3602 40.806 33.2682 40.886C33.1802 40.966 33.0782 41.006 32.9622 41.006H32.0562V34.85H33.5382V38.444C33.5382 38.536 33.5322 38.638 33.5202 38.75C33.5122 38.858 33.5002 38.968 33.4842 39.08C33.5722 38.884 33.6602 38.722 33.7482 38.594C33.7522 38.586 33.7902 38.532 33.8622 38.432C33.9342 38.332 34.0262 38.202 34.1382 38.042C34.2542 37.882 34.3842 37.702 34.5282 37.502C34.6722 37.298 34.8182 37.09 34.9662 36.878C35.3142 36.386 35.7102 35.83 36.1542 35.21C36.2102 35.122 36.2842 35.04 36.3762 34.964C36.4682 34.884 36.5722 34.844 36.6882 34.844H37.5882ZM44.7643 41H43.2823V35.978H41.7703C41.7223 36.734 41.6483 37.386 41.5483 37.934C41.4483 38.478 41.3283 38.94 41.1883 39.32C41.0523 39.7 40.8983 40.006 40.7263 40.238C40.5583 40.466 40.3783 40.644 40.1863 40.772C39.9943 40.9 39.7963 40.984 39.5923 41.024C39.3883 41.068 39.1823 41.09 38.9743 41.09C38.7543 41.09 38.5923 41.07 38.4883 41.03C38.3883 40.994 38.3383 40.942 38.3383 40.874V39.95H38.6923C38.8243 39.95 38.9563 39.93 39.0883 39.89C39.2203 39.85 39.3483 39.768 39.4723 39.644C39.5963 39.52 39.7143 39.344 39.8263 39.116C39.9383 38.884 40.0403 38.58 40.1323 38.204C40.2283 37.824 40.3123 37.36 40.3843 36.812C40.4563 36.264 40.5123 35.608 40.5523 34.844H44.7643V41ZM48.7382 39.938C49.0742 39.938 49.3242 39.854 49.4882 39.686C49.6562 39.518 49.7402 39.302 49.7402 39.038C49.7402 38.926 49.7202 38.818 49.6802 38.714C49.6442 38.61 49.5862 38.518 49.5062 38.438C49.4262 38.358 49.3222 38.296 49.1942 38.252C49.0662 38.204 48.9122 38.18 48.7322 38.18H47.6342V39.938H48.7382ZM48.7262 37.124C49.1542 37.124 49.5162 37.176 49.8122 37.28C50.1082 37.384 50.3482 37.524 50.5322 37.7C50.7162 37.876 50.8482 38.08 50.9282 38.312C51.0122 38.54 51.0542 38.78 51.0542 39.032C51.0542 39.32 51.0022 39.586 50.8982 39.83C50.7982 40.07 50.6482 40.278 50.4482 40.454C50.2522 40.626 50.0102 40.76 49.7222 40.856C49.4382 40.952 49.1122 41 48.7442 41H46.2242V34.844H47.6342V37.124H48.7262Z" fill="#2D2D2D"/>
</svg>

<svg width="52" height="44" fill="none" xmlns="http://www.w3.org/2000/svg"><path d="M26 15c2.762 0 5-2.238 5-5 0-2.763-2.238-5-5-5s-5 2.237-5 5c0 2.762 2.238 5 5 5Zm0 2.5c-3.337 0-10 1.675-10 5V25h20v-2.5c0-3.325-6.663-5-10-5ZM7.98 41H6.354v-7.434H2.586V41H.966v-8.676H7.98V41Zm3.082-1.596c.168.204.35.348.546.432.2.084.416.126.648.126.224 0 .426-.042.606-.126.18-.084.332-.212.456-.384.128-.172.226-.388.294-.648.068-.264.102-.574.102-.93 0-.36-.03-.664-.09-.912a1.73 1.73 0 0 0-.246-.612.978.978 0 0 0-.396-.342 1.206 1.206 0 0 0-.522-.108c-.308 0-.57.066-.786.198-.216.128-.42.31-.612.546v2.76Zm-.078-3.72a3.21 3.21 0 0 1 .858-.69c.32-.176.696-.264 1.128-.264a2 2 0 0 1 .918.21c.28.14.52.344.72.612.204.264.36.592.468.984.112.388.168.834.168 1.338 0 .46-.062.886-.186 1.278a3.095 3.095 0 0 1-.534 1.02 2.447 2.447 0 0 1-.834.678c-.324.16-.688.24-1.092.24-.344 0-.638-.052-.882-.156a2.201 2.201 0 0 1-.654-.444v2.52H9.58v-8.166h.906c.192 0 .318.09.378.27l.12.57Zm8.128-.936c.456 0 .87.074 1.242.222.376.148.696.358.96.63.268.272.474.604.618.996.144.392.216.83.216 1.314 0 .488-.072.928-.216 1.32-.144.392-.35.726-.618 1.002a2.653 2.653 0 0 1-.96.636 3.333 3.333 0 0 1-1.242.222c-.46 0-.878-.074-1.254-.222a2.712 2.712 0 0 1-.966-.636 2.922 2.922 0 0 1-.618-1.002 3.807 3.807 0 0 1-.216-1.32c0-.484.072-.922.216-1.314.148-.392.354-.724.618-.996.268-.272.59-.482.966-.63a3.397 3.397 0 0 1 1.254-.222Zm0 5.202c.512 0 .89-.172 1.134-.516.248-.344.372-.848.372-1.512s-.124-1.17-.372-1.518c-.244-.348-.622-.522-1.134-.522-.52 0-.906.176-1.158.528-.248.348-.372.852-.372 1.512s.124 1.164.372 1.512c.252.344.638.516 1.158.516Zm8.469.036c.596-.044 1.056-.244 1.38-.6.328-.356.492-.844.492-1.464s-.164-1.108-.492-1.464c-.324-.36-.784-.562-1.38-.606v4.134Zm-1.296-4.134c-.296.024-.56.088-.792.192a1.76 1.76 0 0 0-.588.414c-.16.176-.282.388-.366.636-.084.244-.126.52-.126.828 0 .308.042.586.126.834.084.244.206.454.366.63.164.172.36.31.588.414.232.1.496.162.792.186v-4.134Zm1.344-1.098c.492.028.94.122 1.344.282.408.156.756.37 1.044.642.292.272.518.596.678.972.16.376.24.796.24 1.26 0 .468-.08.892-.24 1.272-.16.376-.386.7-.678.972a3.204 3.204 0 0 1-1.044.648c-.404.16-.852.254-1.344.282v1.98h-1.392v-1.98a4.355 4.355 0 0 1-1.35-.282 3.29 3.29 0 0 1-1.044-.648 2.861 2.861 0 0 1-.672-.972c-.16-.38-.24-.804-.24-1.272 0-.464.08-.884.24-1.26.16-.376.384-.7.672-.972.292-.272.64-.486 1.044-.642.408-.16.858-.254 1.35-.282v-2.43h1.392v2.43Zm9.96.09V41h-1.483v-3.594c0-.092.004-.192.012-.3a9.63 9.63 0 0 1 .042-.336 2.91 2.91 0 0 1-.384.654l-.282.39-.384.546-.438.612-1.182 1.668c-.056.084-.13.166-.222.246a.441.441 0 0 1-.306.12h-.906V34.85h1.482v3.594c0 .092-.006.194-.018.306-.008.108-.02.218-.036.33a3.127 3.127 0 0 1 .378-.648c.072-.1.164-.23.276-.39l.39-.54.438-.624c.348-.492.744-1.048 1.188-1.668.056-.088.13-.17.222-.246a.463.463 0 0 1 .312-.12h.9ZM44.763 41h-1.482v-5.022H41.77a17.108 17.108 0 0 1-.222 1.956c-.1.544-.22 1.006-.36 1.386a3.56 3.56 0 0 1-.462.918 2.196 2.196 0 0 1-.54.534c-.192.128-.39.212-.594.252-.204.044-.41.066-.618.066-.22 0-.382-.02-.486-.06-.1-.036-.15-.088-.15-.156v-.924h.354c.132 0 .264-.02.396-.06a.934.934 0 0 0 .384-.246c.124-.124.242-.3.354-.528.112-.232.214-.536.306-.912.096-.38.18-.844.252-1.392.072-.548.128-1.204.168-1.968h4.212V41Zm3.974-1.062c.336 0 .586-.084.75-.252a.877.877 0 0 0 .252-.648c0-.112-.02-.22-.06-.324a.719.719 0 0 0-.174-.276.801.801 0 0 0-.312-.186 1.319 1.319 0 0 0-.462-.072h-1.098v1.758h1.104Zm-.012-2.814c.428 0 .79.052 1.086.156.296.104.536.244.72.42.184.176.316.38.396.612.084.228.126.468.126.72 0 .288-.052.554-.156.798-.1.24-.25.448-.45.624a2.085 2.085 0 0 1-.726.402 3.05 3.05 0 0 1-.978.144h-2.52v-6.156h1.41v2.28h1.092Z" fill="#2D2D2D"/></svg>
